wp-content/themes/pal-theme/img/logo.svg

<svg width="463" height="244" fill="none" xmlns="http://www.w3.org/2000/svg"><path d="M12.5 219c7 0 11.6 5.4 11.6 12.4s-4.6 12.4-11.6 12.4S.9 238.4.9 231.4c0-7.1 4.6-12.4 11.6-12.4zm0 1.8c-5.8 0-9.5 4.5-9.5 10.5s3.7 10.5 9.5 10.5c5.7 0 9.5-4.5 9.5-10.5s-3.8-10.5-9.5-10.5zm31.2 12.6h-5.3v9.9h-2v-23.9h8.9c4.1 0 7.3 2.6 7.3 7 0 4.3-3.1 6.8-6.6 6.9l6.9 10h-2.5l-6.7-9.9zm1.4-12.2h-6.7v10.3h6.7c3.2 0 5.3-2.2 5.3-5.2s-2.1-5.1-5.3-5.1zm34.8 16.2H67.2l-2.4 5.9h-2.3l9.8-23.9h2.5l9.8 23.9h-2.3l-2.4-5.9zm-12.1-1.9h11.5l-5.7-14.2-5.8 14.2zm29.5-12.9v20.7h-2v-23.9h2.1l15 20.4v-20.4h2v23.9h-2l-15.1-20.7zm41.5-3.6c4 0 6.8 1.6 9 4.1l-1.5 1.1c-1.7-2-4.4-3.3-7.5-3.3-5.6 0-10 4.3-10 10.5s4.3 10.5 10 10.5c3.2 0 5.7-1.6 7-2.9v-5.7h-9.1v-1.9h11.1v8.4c-2.1 2.4-5.3 4-9.1 4-6.8 0-12.1-5-12.1-12.4S132 219 138.8 219zm21.4.4h15.2v1.9h-13.1v8.9h12.9v1.9h-12.9v9.5h13.1v1.9h-15.2v-24.1zm43 11.9c0-7.4 5.4-12.4 12.1-12.4 3.9 0 6.8 1.7 8.8 4.2l-1.7 1.1c-1.5-2.1-4.1-3.5-7.1-3.5-5.6 0-9.9 4.3-9.9 10.5s4.3 10.5 9.9 10.5c2.9 0 5.6-1.4 7.1-3.5l1.7 1.1c-2.1 2.6-4.9 4.3-8.8 4.3-6.7.1-12.1-4.9-12.1-12.3zm42.9-12.3c7 0 11.6 5.4 11.6 12.4s-4.6 12.4-11.6 12.4-11.6-5.4-11.6-12.4c0-7.1 4.6-12.4 11.6-12.4zm0 1.8c-5.8 0-9.5 4.5-9.5 10.5s3.7 10.5 9.5 10.5c5.7 0 9.5-4.5 9.5-10.5s-3.7-10.5-9.5-10.5zm23.9-1.4h2.1v14.7c0 4.8 2.5 7.8 7.3 7.8s7.3-2.9 7.3-7.8v-14.7h2.1v14.8c0 5.9-3.2 9.6-9.3 9.6-6.1 0-9.3-3.7-9.3-9.6v-14.8h-.2zm33.8 3.2v20.7h-2v-23.9h2.1l15 20.4v-20.4h2v23.9h-2l-15.1-20.7zm36.4-1.4h-7.8v-1.9h17.7v1.9h-7.8v22.1h-2.1v-22.1zm28.4 11.9l-9.5-13.7h2.5l8.1 11.8 8.1-11.8h2.5l-9.5 13.7v10.2h-2.1l-.1-10.2zm59-11.1l-8.7 21.2h-.8l-8.8-21.2v21.2h-2v-23.9h3l8.2 19.8 8.1-19.8h3.1v23.9h-2.1V222zm15.2-2.6h7.6c7.4 0 12.1 5.4 12.1 12s-4.7 12-12.1 12h-7.6v-24zm7.7 22c6.3 0 9.9-4.5 9.9-10.1s-3.6-10.1-9.9-10.1h-5.6v20.2h5.6z" fill="#D6BEA5"/><path d="M109.7 5.1V.4H105c-21.5 0-39 17.5-39 39v4.7h4.7c21.5 0 39-17.5 39-39zM452.3 80C445.5 69.5 436 62.2 424 58c-8.4-3-21.9-4.5-40.6-4.5h-27.6l1.9 12.2h20.6c17.9 0 30.8 1.2 38.5 3.6 10.4 3.2 18.5 9 24.3 17.5 5.8 8.5 8.7 18.8 8.7 30.8 0 11.5-2.7 21.1-8 29.1s-12.7 13.4-22.1 16.5c-6.7 2.1-18.6 3.2-35.8 3.2h-16.7l1.8 11.8h34.5c8.7 0 17.3-1.5 25.4-4.7 1.5-.6 3.1-1.3 4.5-2.1 8.6-4.5 15.6-11.5 21-21s8.1-20.5 8.1-33c0-14.5-3.3-27-10.2-37.4zM331.4 54.4l-47.7 102.9-47.6-102.9h-4.6l-19.2 126.8h12.5l12.6-91.4 45.2 91.4h2.3L330 89.8l12.7 91.4h12.5L336 54.4h-4.6zM159.1 69.7c8.5-4.8 17.7-7.2 27.6-7.2 9.1 0 17.4 1.8 25 5.5.5.3 1 .5 1.5.8l1.9-12.9c-8.6-3.7-18.2-5.6-28.6-5.6-19.3 0-35.3 6.2-48.1 18.7-5.4 5.3-9.7 11.1-12.8 17.4-3.1-6.2-7.3-12-12.6-17.2-12.7-12.6-28.5-18.9-47.4-18.9-11.6 0-22.5 2.9-32.5 8.7-10 5.8-17.9 13.8-23.7 24C3.6 93.2.7 104.3.7 116.3c0 18 6.4 33.3 19.1 45.9 12.7 12.6 28.3 19 46.8 19 18.3 0 33.7-6.3 46.4-19.1 5.3-5.3 9.4-11 12.5-17.2 2.5 5.2 5.6 10 9.5 14.5 12.6 14.5 29.8 21.8 51.6 21.8 3.5 0 7-.2 10.3-.7l1.8-12.2c-3.6.7-7.4 1.1-11.3 1.1-15.9 0-29-5.1-39.4-15.3-10.4-10.2-15.6-22.8-15.6-38 0-10 2.3-19.1 7-27.2 4.7-8 11.2-14.4 19.7-19.2zm-46.7 73.1c-4.6 8.1-11 14.6-19.3 19.3-8.3 4.7-17.2 7-26.9 7-14.5 0-26.9-5.1-37.1-15.3-10.3-10.2-15.4-22.7-15.4-37.5 0-10 2.3-19.1 7-27.2 4.6-8.1 11.1-14.6 19.4-19.4 8.3-4.8 17-7.2 26.2-7.2 9.4 0 18.3 2.4 26.6 7.2 8.4 4.8 14.9 11.2 19.5 19.2s6.9 17 6.9 26.8c0 9.9-2.3 19-6.9 27.1z" fill="#FE6F61"/></svg>

<svg width="463" height="244" viewBox="0 0 463 244" fill="none" xmlns="http://www.w3.org/2000/svg">
<path d="M12.5 219C19.5 219 24.1 224.4 24.1 231.4C24.1 238.4 19.5 243.8 12.5 243.8C5.5 243.8 0.899994 238.4 0.899994 231.4C0.899994 224.3 5.5 219 12.5 219ZM12.5 220.8C6.7 220.8 3 225.3 3 231.3C3 237.3 6.7 241.8 12.5 241.8C18.2 241.8 22 237.3 22 231.3C22 225.3 18.2 220.8 12.5 220.8Z" fill="#D6BEA5"/>
<path d="M43.7 233.4H38.4V243.3H36.4V219.4H45.3C49.4 219.4 52.6 222 52.6 226.4C52.6 230.7 49.5 233.2 46 233.3L52.9 243.3H50.4L43.7 233.4ZM45.1 221.2H38.4V231.5H45.1C48.3 231.5 50.4 229.3 50.4 226.3C50.4 223.3 48.3 221.2 45.1 221.2Z" fill="#D6BEA5"/>
<path d="M79.9 237.4H67.2L64.8 243.3H62.5L72.3 219.4H74.8L84.6 243.3H82.3L79.9 237.4ZM67.8 235.5H79.3L73.6 221.3L67.8 235.5Z" fill="#D6BEA5"/>
<path d="M97.3 222.6V243.3H95.3V219.4H97.4L112.4 239.8V219.4H114.4V243.3H112.4L97.3 222.6Z" fill="#D6BEA5"/>
<path d="M138.8 219C142.8 219 145.6 220.6 147.8 223.1L146.3 224.2C144.6 222.2 141.9 220.9 138.8 220.9C133.2 220.9 128.8 225.2 128.8 231.4C128.8 237.6 133.1 241.9 138.8 241.9C142 241.9 144.5 240.3 145.8 239V233.3H136.7V231.4H147.8V239.8C145.7 242.2 142.5 243.8 138.7 243.8C131.9 243.8 126.6 238.8 126.6 231.4C126.6 224 132 219 138.8 219Z" fill="#D6BEA5"/>
<path d="M160.2 219.4H175.4V221.3H162.3V230.2H175.2V232.1H162.3V241.6H175.4V243.5H160.2V219.4Z" fill="#D6BEA5"/>
<path d="M203.2 231.3C203.2 223.9 208.6 218.9 215.3 218.9C219.2 218.9 222.1 220.6 224.1 223.1L222.4 224.2C220.9 222.1 218.3 220.7 215.3 220.7C209.7 220.7 205.4 225 205.4 231.2C205.4 237.4 209.7 241.7 215.3 241.7C218.2 241.7 220.9 240.3 222.4 238.2L224.1 239.3C222 241.9 219.2 243.6 215.3 243.6C208.6 243.7 203.2 238.7 203.2 231.3Z" fill="#D6BEA5"/>
<path d="M246.1 219C253.1 219 257.7 224.4 257.7 231.4C257.7 238.4 253.1 243.8 246.1 243.8C239.1 243.8 234.5 238.4 234.5 231.4C234.5 224.3 239.1 219 246.1 219ZM246.1 220.8C240.3 220.8 236.6 225.3 236.6 231.3C236.6 237.3 240.3 241.8 246.1 241.8C251.8 241.8 255.6 237.3 255.6 231.3C255.6 225.3 251.9 220.8 246.1 220.8Z" fill="#D6BEA5"/>
<path d="M270 219.4H272.1V234.1C272.1 238.9 274.6 241.9 279.4 241.9C284.2 241.9 286.7 239 286.7 234.1V219.4H288.8V234.2C288.8 240.1 285.6 243.8 279.5 243.8C273.4 243.8 270.2 240.1 270.2 234.2V219.4H270Z" fill="#D6BEA5"/>
<path d="M303.8 222.6V243.3H301.8V219.4H303.9L318.9 239.8V219.4H320.9V243.3H318.9L303.8 222.6Z" fill="#D6BEA5"/>
<path d="M340.2 221.2H332.4V219.3H350.1V221.2H342.3V243.3H340.2V221.2Z" fill="#D6BEA5"/>
<path d="M368.6 233.1L359.1 219.4H361.6L369.7 231.2L377.8 219.4H380.3L370.8 233.1V243.3H368.7L368.6 233.1Z" fill="#D6BEA5"/>
<path d="M427.6 222L418.9 243.2H418.1L409.3 222V243.2H407.3V219.3H410.3L418.5 239.1L426.6 219.3H429.7V243.2H427.6V222Z" fill="#D6BEA5"/>
<path d="M442.8 219.4H450.4C457.8 219.4 462.5 224.8 462.5 231.4C462.5 238 457.8 243.4 450.4 243.4H442.8V219.4ZM450.5 241.4C456.8 241.4 460.4 236.9 460.4 231.3C460.4 225.7 456.8 221.2 450.5 221.2H444.9V241.4H450.5Z" fill="#D6BEA5"/>
<path d="M109.7 5.10001V0.399994H105C83.5 0.399994 66 17.9 66 39.4V44.1H70.7C92.2 44.1 109.7 26.6 109.7 5.10001Z" fill="#FE6F61"/>
<path d="M452.3 80C445.5 69.5 436 62.2 424 58C415.6 55 402.1 53.5 383.4 53.5H374.3H359.8H355.8L357.7 65.7H369.5H378.3C396.2 65.7 409.1 66.9 416.8 69.3C427.2 72.5 435.3 78.3 441.1 86.8C446.9 95.3 449.8 105.6 449.8 117.6C449.8 129.1 447.1 138.7 441.8 146.7C436.5 154.7 429.1 160.1 419.7 163.2C413 165.3 401.1 166.4 383.9 166.4H369.5H367.2L369 178.2H403.5C412.2 178.2 420.8 176.7 428.9 173.5C430.4 172.9 432 172.2 433.4 171.4C442 166.9 449 159.9 454.4 150.4C459.8 140.9 462.5 129.9 462.5 117.4C462.5 102.9 459.2 90.4 452.3 80Z" fill="#FE6F61"/>
<path d="M331.4 54.4L283.7 157.3L236.1 54.4H231.5L212.3 181.2H224.8L237.4 89.8L282.6 181.2H283.5H284H284.9L330 89.8L342.7 181.2H355.2L336 54.4H331.4Z" fill="#FE6F61"/>
<path d="M159.1 69.7C167.6 64.9 176.8 62.5 186.7 62.5C195.8 62.5 204.1 64.3 211.7 68C212.2 68.3 212.7 68.5 213.2 68.8L215.1 55.9C206.5 52.2 196.9 50.3 186.5 50.3C167.2 50.3 151.2 56.5 138.4 69C133 74.3 128.7 80.1 125.6 86.4C122.5 80.2 118.3 74.4 113 69.2C100.3 56.6 84.5 50.3 65.6 50.3C54 50.3 43.1 53.2 33.1 59C23.1 64.8 15.2 72.8 9.39999 83C3.59999 93.2 0.700012 104.3 0.700012 116.3C0.700012 134.3 7.09999 149.6 19.8 162.2C32.5 174.8 48.1 181.2 66.6 181.2C84.9 181.2 100.3 174.9 113 162.1C118.3 156.8 122.4 151.1 125.5 144.9C128 150.1 131.1 154.9 135 159.4C147.6 173.9 164.8 181.2 186.6 181.2C190.1 181.2 193.6 181 196.9 180.5L198.7 168.3C195.1 169 191.3 169.4 187.4 169.4C171.5 169.4 158.4 164.3 148 154.1C137.6 143.9 132.4 131.3 132.4 116.1C132.4 106.1 134.7 97 139.4 88.9C144.1 80.9 150.6 74.5 159.1 69.7ZM112.4 142.8C107.8 150.9 101.4 157.4 93.1 162.1C84.8 166.8 75.9 169.1 66.2 169.1C51.7 169.1 39.3 164 29.1 153.8C18.8 143.6 13.7 131.1 13.7 116.3C13.7 106.3 16 97.2 20.7 89.1C25.3 81 31.8 74.5 40.1 69.7C48.4 64.9 57.1 62.5 66.3 62.5C75.7 62.5 84.6 64.9 92.9 69.7C101.3 74.5 107.8 80.9 112.4 88.9C117 96.9 119.3 105.9 119.3 115.7C119.3 125.6 117 134.7 112.4 142.8Z" fill="#FE6F61"/>
</svg>
